X: 7
T:Eynsham Poachers
M:6/8
L:1/8
Q:115
S:from Mike Garland
H:Morris tune and son
Z:Bill Johnsto
K:G
G| B2 B Bcd| G2 G G2 A| B2 B dcB |(A3 A2) A| B2 c dcB |A2 B cBA |A2 B A2
 G| F2 E DEF|BGG G3| cAA A3 |Bcd edc| B2 A G3|BGG G3| cAA A3| Bcd edc| B
2 A G3||
